<?xml version="1.0" encoding="UTF-8"?>
<map version="1.10" tiledversion="1.11.2" orientation="orthogonal" renderorder="right-down" width="20" height="20" tilewidth="16" tileheight="16" infinite="0" nextlayerid="5" nextobjectid="1">
 <tileset firstgid="1" source="free_pixel_16_woods.tsx"/>
 <tileset firstgid="265" source="free_pixel_16_woods.tsx"/>
 <layer id="1" name="Piso" width="20" height="20">
  <data encoding="csv">
146,146,146,146,146,146,146,146,146,146,146,146,146,146,146,146,146,146,146,146,
146,164,144,144,144,144,144,144,144,144,144,144,144,144,144,144,144,144,168,146,
146,186,180,180,180,180,180,180,180,180,180,180,180,180,180,180,180,180,190,146,
146,186,180,180,180,180,180,180,180,180,180,180,180,180,180,180,180,180,190,146,
146,186,180,180,180,180,180,180,180,180,180,180,180,180,180,180,180,180,190,146,
146,186,180,180,180,180,180,180,180,180,180,180,180,180,180,180,180,180,190,146,
146,186,180,180,180,180,180,180,180,180,180,180,180,180,180,180,180,180,190,146,
146,186,180,180,180,180,180,180,180,180,180,180,180,180,180,180,180,180,190,146,
146,186,180,180,180,180,180,180,180,180,180,180,180,180,180,180,180,180,190,146,
146,186,180,180,180,180,180,180,180,180,180,180,180,180,180,180,180,180,190,146,
146,186,180,180,180,180,180,180,180,180,180,180,180,180,180,180,180,180,190,146,
146,186,180,180,180,180,180,180,180,180,180,180,180,180,180,180,180,180,190,146,
146,186,180,180,180,180,180,180,180,180,180,180,180,180,180,180,180,180,190,146,
146,186,180,180,180,180,180,180,180,180,180,180,180,180,180,180,180,180,190,146,
146,186,180,180,180,180,180,180,180,180,180,180,180,180,180,180,180,180,190,146,
146,186,180,180,180,180,180,180,180,180,180,180,180,180,180,180,180,180,190,146,
146,186,180,180,180,180,180,180,180,180,180,180,180,180,180,180,180,180,190,146,
146,186,180,180,180,180,180,180,180,180,180,180,180,180,180,180,180,180,190,146,
146,231,232,232,232,232,232,232,232,232,232,232,232,232,232,232,232,232,233,146,
146,146,146,146,146,146,146,146,146,146,146,146,146,146,146,146,146,146,146,146
</data>
 </layer>
 <layer id="4" name="Decoracion" width="20" height="20">
  <data encoding="csv">
170,0,0,171,0,0,171,171,0,0,0,171,0,171,171,171,0,170,170,170,
169,0,0,0,0,0,0,0,0,0,0,0,0,0,0,0,0,0,0,0,
0,0,0,0,0,0,0,0,0,0,0,0,0,0,128,129,0,0,0,0,
169,0,0,0,0,0,0,0,0,104,103,0,0,0,150,151,0,0,0,171,
192,0,0,0,81,0,95,0,0,0,0,0,0,0,172,173,0,0,0,0,
170,0,0,0,0,0,0,0,81,0,0,0,95,0,194,195,0,0,0,0,
170,0,0,83,0,95,0,0,0,0,0,0,0,0,0,81,0,0,0,0,
0,0,0,0,0,0,0,104,0,0,0,0,0,0,0,0,0,0,0,170,
170,0,0,0,0,0,18,19,20,21,73,0,0,0,0,0,0,0,0,0,
170,0,0,0,0,0,40,41,42,43,0,0,0,0,152,153,0,0,0,171,
170,0,0,0,0,0,62,63,64,65,0,0,0,0,174,175,0,0,0,0,
0,0,0,0,59,0,84,85,86,87,135,136,136,136,137,70,0,0,0,0,
0,0,0,0,82,0,103,107,108,109,178,116,83,117,182,0,0,0,0,0,
0,0,0,0,82,82,82,0,0,0,178,116,0,117,182,81,0,0,0,170,
171,0,0,0,0,0,0,0,0,0,223,226,227,228,204,0,0,0,0,170,
0,0,0,0,81,0,0,0,0,0,0,0,0,0,0,0,125,126,0,169,
0,0,0,0,0,0,0,0,0,0,0,0,0,0,0,0,0,0,0,0,
169,0,0,0,0,0,0,0,104,0,0,0,0,0,0,0,59,0,0,169,
170,0,0,0,0,0,0,0,0,0,0,0,0,0,0,0,0,0,0,169,
170,170,191,171,0,169,169,170,170,170,0,169,169,0,169,171,193,169,170,170
</data>
 </layer>
</map>
